X: 22
T: O rosa bella / He Robinet
N: Derived from Ano3028-O_rosa_bella__He_Robinet--Escorial_B.krn
C: Anonymous
%%abc-version 2.0
%%abcx-abcm2ps-target-version 5.9.1 (29 Sep 2008)
%%abc-creator hum2abc beta
%%abcx-conversion-date 2019/02/16 20:18:27
%%abc-edited-by Jesse Rodin
%%abc-edited-by Chris Gage 03-05-2015
%%abcx-initial-encoding-date 2015/03/14/
%%humdrum-veritas 1792254004
%%humdrum-veritas-data 3731502804
%%linebreak <none>
%%barnumbers 0
L: 1/4
M: 4/2
Q: 1/2=120
%%staves {1 2}
V: 1 clef=treble
V: 2 clef=treble-8
K: F
[V:1] G6E2 | 
[V:2] z4G4 | 
[V:1] F2EFG2F2 | 
[V:2] A2A2G4 | 
[V:1] D4z2C2 | 
[V:2] z2G2A2A2 | 
[V:1] D2B,2A,4 | 
[V:2] G2G2c2c2 | 
[V:1] G,4z2F2 | 
[V:2] B2G2A4 | 
[V:1] G2B2AGG2- | 
[V:2] B4G4 | 
[V:1] G^FFEG4 | 
[V:2] A2A2G4 | 
[V:1] z2D2D2D2 | 
[V:2] [M:2/1](3:2:5G2G2G2G4G2 | 
[V:1] B,2G,2z2D2 | 
[V:2] (3:2:5d4d2B2B2B2 | 
[V:1] _E4D4 | 
[V:2] (3c2c2c2G4 | 
[V:1] C2B,2G,4 | 
[V:2] (3:2:5z2z2d2d2e4 | 
[V:1] A,4G,4 | 
[V:2] (3:2:4f4c2c2B4 | 
[V:1] z2F2G4 | 
[V:2] A4(3G2G2G2 | 
[V:1] B4A4- | 
[V:2] G4z4 | 
[V:1] A2A2G4 | 
[V:2] [M:2/1]d4B4 | 
[V:1] G2F4_E2- | 
[V:2] A4G4 | 
[V:1] EDD3CCB, | 
[V:2] F4E4 | 
[V:1] D4z2G2 | 
[V:2] D2D2E2E2 | 
[V:1] F4E4 | 
[V:2] D2D2G2G2 | 
[V:1] D2D2z2C2 | 
[V:2] F2F2E4 | 
[V:1] B,2D3CB,A, | 
[V:2] D4z2d2 | 
[V:1] G,4z2F2 | 
[V:2] B3cd4 | 
[V:1] G2A4F2 | 
[V:2] B2c2d4 | 
[V:1] G2F2D4 | 
[V:2] B2c2d2B2 | 
[V:1] E2F3GA2 | 
[V:2] c2d2B2c2 | 
[V:1] B2AG^F4- | 
[V:2] d4d4 | 
[V:1] F8 |]  
[V:2] d8 |]  



